icons/mobile/24/svg/pin-slash-24.svg

<svg width="24" height="24" viewBox="0 0 24 24" fill="none" xmlns="http://www.w3.org/2000/svg">
<path fill-rule="evenodd" clip-rule="evenodd" d="M21.0058 2.75579C21.3475 2.41408 21.9024 2.41408 22.2441 2.75579C22.5858 3.0975 22.5858 3.65237 22.2441 3.99407L17.9404 8.29681C18.857 8.49596 19.6422 9.13039 20.038 10.0175C20.461 10.9675 20.3595 12.0068 19.7665 12.7978C19.0506 13.7527 18.2759 14.6678 17.3281 15.6767L17.1308 15.873L21.7451 20.5077C22.0856 20.8501 22.0851 21.4042 21.7431 21.7451C21.4008 22.0859 20.8468 22.0842 20.5058 21.7421L15.8915 17.1083L15.6982 17.3017C14.6352 18.2947 13.6537 19.1269 12.7597 19.7949C12.3037 20.1358 11.7639 20.3085 11.206 20.3085C10.816 20.3085 10.4181 20.2236 10.0341 20.0527C9.14001 19.6521 8.50091 18.8614 8.30071 17.9365L3.99407 22.2441C3.65237 22.5858 3.0975 22.5858 2.75579 22.2441C2.41408 21.9024 2.41408 21.3475 2.75579 21.0058L21.0058 2.75579ZM9.89446 16.3427L9.98919 17.4218C10.0352 17.9548 10.412 18.305 10.749 18.456C10.915 18.53 11.3399 18.6724 11.7109 18.3935C12.5538 17.7625 13.4874 16.9718 14.4833 16.0429L16.0722 14.4599C16.9541 13.52 17.6892 12.6509 18.3661 11.749C18.6639 11.3521 18.5154 10.9065 18.4374 10.7324C18.2894 10.4014 17.9457 10.0313 17.4247 9.98529L16.3466 9.89056L9.89446 16.3427Z" fill="black"/>
<path d="M10.9365 3.16204C11.3299 2.88195 11.8758 2.97383 12.1562 3.36712C12.4366 3.76064 12.3456 4.30736 11.9521 4.58782C11.7581 4.72607 11.5677 4.86403 11.3818 5.00286L14.0117 7.63079L12.7753 8.86907L10.0019 6.09759C9.24247 6.73387 8.564 7.36165 7.96282 7.96282C7.27597 8.64968 6.65553 9.33305 6.09661 9.99993L8.87103 12.7714L7.6347 14.0097L5.00384 11.3818C4.85977 11.5745 4.72061 11.7646 4.58685 11.9521C4.30621 12.3453 3.76045 12.4366 3.36712 12.1562C2.97372 11.8755 2.88237 11.3289 3.16302 10.9355C4.09821 9.62461 5.26907 8.18197 6.72552 6.72552C7.86045 5.59059 9.25321 4.36158 10.9365 3.16204Z" fill="black"/>
</svg>

<!-- This Source Code Form is subject to the terms of the Mozilla Public
   - License, v. 2.0. If a copy of the MPL was not distributed with this
   - file, You can obtain one at http://mozilla.org/MPL/2.0/. -->
<svg xmlns="http://www.w3.org/2000/svg" width="24" height="24" fill="none" viewBox="0 0 24 24">
    <path fill="#000" fill-rule="evenodd" d="M21.006 2.756a.876.876 0 0 1 1.238 1.238L17.94 8.297a3 3 0 0 1 2.098 1.72c.423.95.322 1.99-.271 2.78a33 33 0 0 1-2.439 2.88l-.197.196 4.614 4.635a.876.876 0 0 1-1.24 1.234l-4.613-4.634-.194.194q-1.596 1.49-2.938 2.493c-.456.34-.996.513-1.554.513-.39 0-.788-.084-1.172-.255a3.03 3.03 0 0 1-1.733-2.117l-4.307 4.308a.876.876 0 0 1-1.238-1.238zM9.894 16.343l.095 1.079c.046.533.423.883.76 1.034.166.074.59.216.962-.062a34 34 0 0 0 2.772-2.351l1.59-1.583a32 32 0 0 0 2.293-2.711c.298-.397.15-.843.071-1.017-.148-.33-.491-.7-1.012-.747l-1.078-.094z" clip-rule="evenodd" />
    <path fill="#000" d="M10.937 3.162a.875.875 0 0 1 1.015 1.426q-.291.207-.57.415l2.63 2.628-1.237 1.238-2.773-2.771A31.4 31.4 0 0 0 6.097 10l2.773 2.77-1.235 1.24-2.631-2.628q-.216.29-.417.57a.875.875 0 1 1-1.424-1.017 33.3 33.3 0 0 1 7.774-7.773" />
</svg>
